X:130
T:Wap 'em all Wally, the Irish Way
S:R. Bremner, The Delightful Pocket Companion for the German Flute
A:opposite Somerset House in the Strand, London
B:NLS Glen.186
N:vol 2nd part 5th p.14
M:C|
L:1/8
Q:1/2=90
K:D
ddfd g2 a/g/f/e/|ddfd e2 (c<A)|ddfd gefd|f/g/a/f/ e/f/g/e/ f2 (e<d):|
fgBg BgdB       |fgBg Be  c<A |fgBg BgdB|e/f/g/e/ f/g/a/f/ e2  c<A :|

